papirus/22x22/apps/gmail.svg

<?xml version="1.0" encoding="UTF-8" standalone="no"?>
<svg
   xmlns:dc="http://purl.org/dc/elements/1.1/"
   xmlns:cc="http://creativecommons.org/ns#"
   xmlns:rdf="http://www.w3.org/1999/02/22-rdf-syntax-ns#"
   xmlns:svg="http://www.w3.org/2000/svg"
   xmlns="http://www.w3.org/2000/svg"
   xmlns:sodipodi="http://sodipodi.sourceforge.net/DTD/sodipodi-0.dtd"
   xmlns:inkscape="http://www.inkscape.org/namespaces/inkscape"
   width="22"
   height="22"
   viewBox="0 0 22 22"
   version="1.1"
   preserveAspectRatio="xMidYMid"
   id="svg2"
   inkscape:version="0.91 r13725"
   sodipodi:docname="gmail.svg">
  <metadata
     id="metadata33">
    <rdf:RDF>
      <cc:Work
         rdf:about="">
        <dc:format>image/svg+xml</dc:format>
        <dc:type
           rdf:resource="http://purl.org/dc/dcmitype/StillImage" />
        <dc:title></dc:title>
      </cc:Work>
    </rdf:RDF>
  </metadata>
  <sodipodi:namedview
     pagecolor="#ffffff"
     bordercolor="#666666"
     borderopacity="1"
     objecttolerance="10"
     gridtolerance="10"
     guidetolerance="10"
     inkscape:pageopacity="0"
     inkscape:pageshadow="2"
     inkscape:window-width="1600"
     inkscape:window-height="849"
     id="namedview31"
     showgrid="false"
     inkscape:zoom="11.420324"
     inkscape:cx="18.711863"
     inkscape:cy="6.5849452"
     inkscape:window-x="0"
     inkscape:window-y="30"
     inkscape:window-maximized="1"
     inkscape:current-layer="svg2" />
  <defs
     id="defs4">
    <linearGradient
       x1="1.3210427"
       y1="127.76156"
       x2="211.76385"
       y2="127.76156"
       id="linearGradient-1"
       gradientTransform="matrix(0.09442676,0,0,0.06431376,0.9831095,3.9999978)"
       gradientUnits="userSpaceOnUse">
      <stop
         stop-color="#000000"
         stop-opacity="0.1"
         offset="0%"
         id="stop7" />
      <stop
         stop-color="#000000"
         stop-opacity="0.2"
         offset="100%"
         id="stop9" />
    </linearGradient>
  </defs>
  <g
     id="g4152">
    <path
       d="m 19.75,18.999998 -17.4999999,0 c -0.6785714,0 -1.25,-0.548349 -1.25,-1.238208 l 0,-12.5235845 c 0,-0.67217 0.5535714,-1.2382075 1.25,-1.2382075 l 17.4999999,0 c 0.678571,0 1.25,0.548349 1.25,1.2382075 L 21,17.76179 c 0,0.689859 -0.553572,1.238208 -1.25,1.238208 l 0,0 z"
       id="path13"
       inkscape:connector-curvature="0"
       style="fill:#e3e3e3" />
    <path
       d="M 3.4988951,18.982413 10.969915,13.056271 11.023407,12.73974 3.3205891,7.270807 3.3027585,18.718638 3.4988951,18.982413 Z"
       id="path15"
       inkscape:connector-curvature="0"
       style="opacity:0.1;fill:#231f20" />
    <path
       sodipodi:nodetypes="ssccssss"
       id="path21"
       d="M 19.724609,4.4746074 C 19.029216,4.4746074 18,5.1621854 18,5.848 L 18,18.98242 18,19 19.724609,19 C 20.420003,19 21,18.455346 21,17.769531 L 21,5.248047 C 21,4.562232 20.420003,4.4746094 19.724609,4.4746074 Z"
       style="fill:#d54b3d"
       inkscape:connector-curvature="0" />
    <path
       sodipodi:nodetypes="ssssscscs"
       id="path17"
       d="m 2.2439976,4.4921874 c -0.6082952,0 -1.10667,0.095277 -1.2196626,0.5820311 C 1.008575,5.1421085 1,5.217812 1,5.3017575 L 1,17.769531 C 1,18.455346 1.5508606,19 2.2439976,19 L 4,19 4,6.1013495 C 4,6.0178215 3.99111,5.941609 3.974692,5.8738105 3.8616974,5.387059 2.8522914,4.4921873 2.2439976,4.4921874 Z"
       style="fill:#d54b3d"
       inkscape:connector-curvature="0" />
    <path
       sodipodi:nodetypes="cccccssc"
       d="M 14,19 1,7 1.8049885,6.075027 l 9.2362485,6.559203 9.931642,-7.1823505 0,12.3171685 C 20.972879,18.437279 20.42013,19 19.724737,19 Z"
       id="path25"
       style="fill:url(#linearGradient-1)"
       inkscape:connector-curvature="0" />
    <path
       id="path4161"
       d="M 19.78125,4.0058594 A 1.50015,1.50015 0 0 0 19.078125,4.3164062 L 11,10.599609 2.921875,4.3164062 A 1.5002492,1.5002492 0 0 0 2.15625,4.0097656 C 1.5053958,4.0586881 1,4.5971473 1,5.2382812 l 0,1.3789063 a 1.5002492,1.5002492 0 0 0 0.078125,0.066406 l 9,7.0000005 a 1.50015,1.50015 0 0 0 1.84375,0 l 9,-7.0000005 A 1.50015,1.50015 0 0 0 21,6.6191406 L 21,5.2382812 C 21,4.5595713 20.445329,4.0231918 19.78125,4.0058594 Z"
       style="color:#000000;font-style:normal;font-variant:normal;font-weight:normal;font-stretch:normal;font-size:medium;line-height:normal;font-family:sans-serif;text-indent:0;text-align:start;text-decoration:none;text-decoration-line:none;text-decoration-style:solid;text-decoration-color:#000000;letter-spacing:normal;word-spacing:normal;text-transform:none;direction:ltr;block-progression:tb;writing-mode:lr-tb;baseline-shift:baseline;text-anchor:start;white-space:normal;clip-rule:nonzero;display:inline;overflow:visible;visibility:visible;opacity:1;isolation:auto;mix-blend-mode:normal;color-interpolation:sRGB;color-interpolation-filters:linearRGB;solid-color:#000000;solid-opacity:1;fill:#d54b3d;fill-opacity:1;fill-rule:evenodd;stroke:none;stroke-width:3;stroke-linecap:round;stroke-linejoin:round;stroke-miterlimit:4;stroke-dasharray:none;stroke-dashoffset:0;stroke-opacity:1;color-rendering:auto;image-rendering:auto;shape-rendering:auto;text-rendering:auto;enable-background:accumulate"
       inkscape:connector-curvature="0" />
    <path
       id="path4175"
       d="m 1,17.261717 0,0.5 c 0,0.689858 0.5714286,1.238281 1.25,1.238281 l 17.5,0 c 0.696428,0 1.25,-0.548423 1.25,-1.238281 l 0,-0.5 c 0,0.689858 -0.553572,1.238281 -1.25,1.238281 l -17.5,0 C 1.5714286,18.499998 1,17.951575 1,17.261717 Z"
       style="opacity:0.3;fill:#000000;fill-opacity:1"
       inkscape:connector-curvature="0" />
    <path
       id="path4180"
       d="M 2.25,3.999998 C 1.5535715,3.999998 1,4.5661095 1,5.238279 l 0,0.5 C 1,5.0661095 1.5535715,4.499998 2.25,4.499998 l 17.5,0 c 0.678571,0 1.25,0.548423 1.25,1.238281 l 0,-0.5 C 21,4.548421 20.428571,3.999998 19.75,3.999998 l -17.5,0 z"
       style="opacity:0.1;fill:#ffffff;fill-opacity:1"
       inkscape:connector-curvature="0" />
  </g>
</svg>

<?xml version="1.0" encoding="UTF-8" standalone="no"?>
<svg id="svg2" xmlns:rdf="http://www.w3.org/1999/02/22-rdf-syntax-ns#" xmlns="http://www.w3.org/2000/svg" viewBox="0 0 22 22" width="22" version="1.1" preserveAspectRatio="xMidYMid" xmlns:cc="http://creativecommons.org/ns#" height="22" xmlns:dc="http://purl.org/dc/elements/1.1/">
 <metadata id="metadata33">
  <rdf:RDF>
   <cc:Work rdf:about="">
    <dc:format>image/svg+xml</dc:format>
    <dc:type rdf:resource="http://purl.org/dc/dcmitype/StillImage"/>
    <dc:title/>
   </cc:Work>
  </rdf:RDF>
 </metadata>
 <path id="path13" fill="#ccc" d="m19.75 19h-17.5c-0.67857 0-1.25-0.54835-1.25-1.2382v-12.524c0-0.67217 0.55357-1.2382 1.25-1.2382h17.5c0.67857 0 1.25 0.54835 1.25 1.2382v12.524c0 0.68986-0.55357 1.2382-1.25 1.2382z"/>
 <path id="path21" fill="#d54b3d" d="m19.725 4.4746c-0.696 0-1.725 0.6876-1.725 1.3734v13.134 0.018h1.725c0.695 0 1.275-0.545 1.275-1.23v-12.522c0-0.6858-0.58-0.7734-1.275-0.7734z"/>
 <path id="path17" fill="#d54b3d" d="m2.244 4.4922c-0.6083 0-1.1067 0.095277-1.2197 0.58203-0.0157 0.0679-0.0243 0.1436-0.0243 0.2276v12.468c0 0.685 0.5509 1.23 1.244 1.23h1.756v-12.899c0-0.0832-0.0089-0.1594-0.0253-0.2272-0.113-0.4867-1.1224-1.3816-1.7307-1.3816z"/>
 <path id="path4161" style="color-rendering:auto;text-decoration-color:#000000;color:#000000;isolation:auto;mix-blend-mode:normal;shape-rendering:auto;solid-color:#000000;block-progression:tb;text-decoration-line:none;text-decoration-style:solid;image-rendering:auto;white-space:normal;text-indent:0;text-transform:none" d="m19.781 4.0059a1.5002 1.5002 0 0 0 -0.703 0.3105l-8.078 6.2836-8.0781-6.2836a1.5002 1.5002 0 0 0 -0.7657 -0.3066c-0.6508 0.0489-1.1562 0.5873-1.1562 1.2285v1.3789a1.5002 1.5002 0 0 0 0.078125 0.066406l9 7a1.5002 1.5002 0 0 0 1.8438 0l9-7a1.5002 1.5002 0 0 0 0.078 -0.0649v-1.3808c0-0.6787-0.555-1.2151-1.219-1.2324z" fill-rule="evenodd" fill="#d54b3d"/>
 <path id="path4175" opacity=".2" d="m1 17.762v0.5c0 0.69 0.5714 1.238 1.25 1.238h17.5c0.69643 0 1.25-0.54842 1.25-1.2383v-0.5c0 0.69-0.554 1.238-1.25 1.238h-17.5c-0.6786 0-1.25-0.548-1.25-1.238z"/>
 <path id="path4180" opacity=".1" d="m2.25 4c-0.6964 0-1.25 0.5661-1.25 1.2383v0.5c0-0.6722 0.5536-1.2383 1.25-1.2383h17.5c0.67857 0 1.25 0.54842 1.25 1.2383v-0.5c0-0.6899-0.571-1.2383-1.25-1.2383h-17.5z" fill="#fff"/>
</svg>
